!!!COM: Scriabin, Alexander
!!!OTL@@FR: Prélude en mi bémol majeur
!!!OTL@@EN: Prelude in Eb Major
!!!OPR@@FR: 4 Morceaux
!!!OPR@@EN: 4 Pieces
!!!OPS: 56
!!!ONM: 1
!!!ODT: 1908
!!!AGN: Prelude
**kern	**kern	**dynam
*staff2	*staff1	*staff1/2
*Ipiano	*Ipiano	*
*clefF4	*clefG2	*
*k[b-e-a-]	*k[b-e-a-]	*
*E-:	*E-:	*
*M6/8	*M6/8	*
16EE- 16E-	[16f-X [16b--	.
=1	=1	=1
*	*^	*
4D-X 4d-X	4B--	8f-L] 8b--]	.
.	.	8.a-	.
16r	8r	.	.
16EE- 16E-	.	[16e-Jk [16g	.
4D- 4d-	4B--	8e-L] 8g]	.
.	.	8.ee-	.
16r	8r	.	.
16EE- 16E-	.	[16e-Jk [16g	.
=2	=2	=2	=2
4C 4c	4A-	8e-L] 8g]	.
.	.	8.g-X	.
8r	8rA	.	.
.	.	16A-Jk 16fn	.
4r	4rF	8e-L 8cc	.
.	.	8.A-	.
16r	8rA	.	.
16EE- 16E-	.	[16dnJk [16g-	.
*	*v	*v	*
!!LO:LB:g=original
=3	=3	=3
8C-XL 8c-X	8A-L 8d] 8g-]	.
8.A- 8.d	8.f-X 8.a- 8.cc-X 8.ff-X	.
16EE-Jk 16E-	[16B-Jk [16d [16b-	.
8C-L 8c-	8B-L] 8d] 8b-]	.
8.A- 8.d 8.f-X	8.a- 8.ff- 8.aa-	.
16EE-Jk 16E-	[16d-XJk [16a- [16dd-X	.
=4	=4	=4
8AA-L 8A-	8d-L] 8a-] 8dd-]	.
8c-X 8f-X 8a-	8cc-X 8ff-X 8aa- 8ccc-X	.
8B-J 8f- 8a-	8dd-XJ 8ff- 8aa- 8ddd-X	.
8B-L 8e- 8g	4ee- 4gg 4eee-	.
8EE-J 8E-	.	.
16r	16r	.
16EE- 16E-	[16f-X [16b--	.
=5	=5	=5
*	*^	*
4D-X 4d-X	4B--	8f-L] 8b--]	.
.	.	8.a-	.
16r	8r	.	.
16EE- 16E-	.	[16e-Jk [16g	.
4D- 4d-	4B--	8e-L] 8g]	.
.	.	8.ee-	.
16r	8r	.	.
16EE- 16E-	.	[16e-Jk [16g	.
!!LO:LB:g=original
=6	=6	=6	=6
4C 4c	4A-	8e-L] 8g]	.
.	.	8.g-X	.
8r	8rA	.	.
.	.	16A-Jk 16f	.
4r	4rF	8e-L 8cc	.
.	.	8.A-	.
16r	8rA	.	.
16EE- 16E-	.	[16dnJk [16g-	.
*	*v	*v	*
=7	=7	=7
8C-XL 8c-X	8A-L 8d] 8g-]	.
8.A- 8.d	8.f-X 8.a- 8.cc-X 8.ff-X	.
16EE-Jk 16E-	[16B-Jk [16d [16b-	.
8C-L 8c-	8B-L] 8d] 8b-]	.
8.A- 8.d 8.f-X	8.a- 8.ff- 8.aa-	.
16EE-Jk 16E-	[16d-XJk [16a- [16dd-X	.
=8	=8	=8
8AA-L 8A-	8d-L] 8a-] 8dd-]	.
8c-X 8f-X 8a-	8cc-X 8ff-X 8aa- 8ccc-X	.
8B-J 8f- 8a-	8dd-XJ 8ff- 8aa- 8ddd-X	.
8B-L 8e- 8g	4ee- 4gg 4eee-	.
8EE-J 8E-	.	.
8r	[8cc-	.
!!LO:LB:g=original
=9	=9	=9
*	*^	*
4EE- 4E-	4c-X 4g-X	8cc-L]	.
.	.	8gg-X	.
8r	8r	[8b-J	.
4GGn 4Gn	4cn 4en	8b-L]	.
.	.	8eenJ	.
*	*v	*v	*
[8G [8c [8en [8b-	[8ee [8bb- [8eeen	.
=10	=10	=10
8G] 8c] 8e] 8b-]	8ee] 8bb-] 8eee]	.
4G 4c 4en 4b-	4een 4bb- 4eeen	.
4G 4c 4e 4b-	4ee 4bb- 4eee	.
8r	[8an	.
=11	=11	=11
*	*^	*
4CC#X 4C#X	4An 4en	8aL]	.
.	.	8een	.
8r	8r	[8a-XJ	.
4FF 4F	4B- 4d	8a-L]	.
.	.	8ddJ	.
*	*v	*v	*
[8F [8B- [8d [8a-	[8dd [8aa- [8ddd	.
!!LO:LB:g=original
=12	=12	=12
8F] 8B-] 8d] 8a-]	8dd] 8aa-] 8ddd]	.
4F 4B- 4d 4a-	4dd 4aa- 4ddd	.
4F 4B- 4d 4a-	4dd 4aa- 4ddd	.
[8FFF [8FF	[8A- [8d	.
=13	=13	=13
8FFFL] 8FF]	8A-L] 8d]	.
8FFF#X 8FF#X	8F-X 8B- 8d	.
8GGGJ 8GG	8E-J 8B- 8e-	.
4CC-X 4C-X	4F- 4A- 4d	.
[8A- [8d [8f-X [8a-	[8dd [8ff-X [8aa- [8ddd	.
=14	=14	=14
8A-] 8d] 8f-] 8a-]	8dd] 8ff-] 8aa-] 8ddd]	.
4A- 4d 4f-X 4a-	4dd 4ff-X 4aa- 4ddd	.
8A-L 8d 8f- 8a-	8dd 8ff- 8aa- 8ddd	.
8EEEn 8EEn	8r	.
[8FFFnJ [8FFn	[8A- [8d	.
!!LO:LB:g=original
=15	=15	=15
8FFFL] 8FF]	8A-L] 8d]	.
8FFF#X 8FF#X	8F-X 8B- 8d	.
8GGGJ 8GG	8E-J 8B- 8e-	.
4CC-X 4C-X	4F- 4A- 4d	.
[8A- [8d [8f-X [8a-	[8dd [8ff-X [8aa- [8ddd	.
=16	=16	=16
8A-] 8d] 8f-] 8a-]	8dd] 8ff-] 8aa-] 8ddd]	.
4A- 4d 4f-X 4a-	4dd 4ff-X 4aa- 4ddd	.
4A- 4d 4f- 4a-	4dd 4ff- 4aa- 4ddd	.
8CC-X 8C-X	8r	.
=17	=17	=17
4BBB- 4BB-\	8r	.
.	4F-X< 4A-< 4d	.
8CC-X 8C-X	.	.
8BBB-L 8BB-\	4A- 4f-X 4a-	.
8.F-X 8.d	.	.
.	8r	.
16CC-Jk 16C-	.	.
=18	=18	=18
4BBB- 4BB-	8r	.
.	4d 4f-X 4a- 4dd	.
8CC-X 8C-X	.	.
8BBB-L 8BB-	4a- 4dd 4ff-X 4aa-	.
8A-J 8d 8f-X	.	.
16r	16r	.
16EE- 16E-	[16b-- [16ff- [16bb--	.
!!LO:LB:g=original
=19	=19	=19
8D-XL 8d-X	8b--L] 8ff-] 8bb--]	.
8B-- 8f-X 8b--	8.a- 8.dd-X 8.aa-	.
8EE-J 8E-	.	.
.	[16gJk [16ee- [16gg	.
8D-L 8d-	8gL] 8ee-] 8gg]	.
8B-- 8f- 8b--	8.ee- 8.gg 8.eee-	.
8EE-J 8E-	.	.
.	[16gJk [16ee- [16gg	.
=20	=20	=20
8CL 8c	8gL] 8ee-] 8gg]	.
8A-J 8e- 8a-	8.g-X 8.ee- 8.gg-X	.
8r	.	.
.	16fJk 16ee- 16ff	.
4r	8ccL 8ccc	.
.	8.A- 8.a-	.
16r	.	.
16EE- 16E-	[16g-Jk [16ddn [16gg-	.
=21	=21	=21
8C-XL 8c-X	8g-L] 8dd] 8gg-]	.
8.A- 8.d 8.f-X 8.cc-X	8.ff-X 8.aa- 8.fff-X	.
16EE-Jk 16E-	[16b-Jk [16dd [16bb-	.
8C-L 8c-	8b-L] 8dd] 8bb-]	.
8.A- 8.d 8.f- 8.cc-	8.aa- 8.ddd 8.fff- 8.aaa-	.
16EE-Jk 16E-	[16dd-XJk [16aa- [16ddd-X	.
!!LO:LB:g=original
=22	=22	=22
8AA-L 8A-	8dd-L] 8aa-] 8ddd-]	.
*	*8va	*
*clefG2	*	*
8c-X 8f-X 8a- 8ff-X	8aa- 8dddn 8cccc-X	.
8B-J 8f- 8a- 8ff-	8bb-J 8aaa- 8dddd	.
8B-L 8e- 8g 8ee-	4bb- 4ggg 4eeee-	.
*clefF4	*	*
*	*X8va	*
8.EE- 8.E-	.	.
.	16r	.
16EEE-Jk 16EE-	[16d-X [16a- [16dd-X	.
=23	=23	=23
8AAA-L 8AA-/	8d-L] 8a-] 8dd-]	.
8C-X 8F-X 8A- 8f-X	8a- 8ddn 8ccc-X	.
8BB-J 8F- 8A- 8f-	8b-J 8aa- 8ddd-X	.
8BB-L 8E- 8G 8e-	4b- 4gg 4eee-	.
8EE- 8E-	.	.
16rC	16r	.
*	*clefF4	*
16EEE-Jk 16EE-	[16D-X [16F-X [16d-X	.
=24	=24	=24
8AAA-L 8AA-	8D-L] 8F-] 8d-]	.
*	*clefG2	*
8C-X 8A-	8c-X 8f-X 8a- 8cc-X	.
8F-XJ 8c-X	8d-XJ 8f- 8a- 8dd-X	.
4r	4r	.
8r	8r	.
=25	=25	=25
4r	4r	.
8r	8r	.
*	*clefF4	*
4.C-X	4.F-X 4.A- 4.dn	.
=26	=26	=26
2.EEE- 2.EE- 2.BB-	2.E- 2.G 2.e-	.
==	==	==
*-	*-	*-
!!!system-decoration: {(*)}
!!!filter: flipper -a
!!!RDF**kern: < = below
!!!ENC: Bryan Jacob Bell
!!!END: November 2021 to April 2022
!!!PED: Günter Philipp
!!!PTL: Ausgewählte Klavierwerke (Edition Peters)
